assets/images/icons/set1/view.svg

<svg xmlns="http://www.w3.org/2000/svg" width="28" height="28" xmlns:xlink="http://www.w3.org/1999/xlink" id="set1-view">
  <use xlink:href="#a15" transform="translate(8 11)"/>
  <defs>
    <path id="a15" fill-rule="evenodd" d="M5.99976 0C1.96375 0 .140747 3.11951.0652466 3.25244c-.0869751.15357-.0869751.34204 0 .49512C.140747 3.88049 1.96375 7 5.99976 7c4.03604 0 5.85904-3.11951 5.93454-3.25244.0869-.15357.0869-.34204 0-.49512C11.8588 3.11951 10.0358 0 5.99976 0zm0 1c.82702 0 1.5.67297 1.5 1.5s-.67298 1.5-1.5 1.5c-.82703 0-1.5-.67297-1.5-1.5s.67297-1.5 1.5-1.5zM1.09778 3.50208C1.58179 4.18201 3.14227 6 5.99976 6c2.83703 0 4.41604-1.82751 4.90154-2.50146-.3375-.47498-1.20001-1.5-2.65704-2.0785.159.3285.2555.69153.2555 1.07996 0 1.37854-1.12146 2.5-2.5 2.5-1.37848 0-2.5-1.12146-2.5-2.5 0-.3855.09503-.74646.25152-1.073-1.44897.58203-2.31598 1.60657-2.6535 2.07508z"/>
  </defs>
</svg>

<svg width="28" height="28" viewBox="0 0 28 28" version="1.1" xmlns="http://www.w3.org/2000/svg" xmlns:xlink="http://www.w3.org/1999/xlink">
<title>@$&#9;</title>
<desc>Created using Figma</desc>
<g id="Canvas" transform="translate(-916 -1774)">
<g id="Icon/Presta/White/Activity">
<g id="Icon/Presta/White/View">
<g id="Shape">
<use xlink:href="#path0_fill" transform="translate(924 1785)" fill="#202A37"/>
</g>
</g>
</g>
</g>
<defs>
<path id="path0_fill" fill-rule="evenodd" d="M 5.99976 0C 1.96375 0 0.140747 3.11951 0.0652466 3.25244C -0.0217285 3.40601 -0.0217285 3.59448 0.0652466 3.74756C 0.140747 3.88049 1.96375 7 5.99976 7C 10.0358 7 11.8588 3.88049 11.9343 3.74756C 12.0212 3.59399 12.0212 3.40552 11.9343 3.25244C 11.8588 3.11951 10.0358 0 5.99976 0ZM 5.99976 1C 6.82678 1 7.49976 1.67297 7.49976 2.5C 7.49976 3.32703 6.82678 4 5.99976 4C 5.17273 4 4.49976 3.32703 4.49976 2.5C 4.49976 1.67297 5.17273 1 5.99976 1ZM 1.09778 3.50208C 1.58179 4.18201 3.14227 6 5.99976 6C 8.83679 6 10.4158 4.17249 10.9013 3.49854C 10.5638 3.02356 9.70129 1.99854 8.24426 1.42004C 8.40326 1.74854 8.49976 2.11157 8.49976 2.5C 8.49976 3.87854 7.3783 5 5.99976 5C 4.62128 5 3.49976 3.87854 3.49976 2.5C 3.49976 2.1145 3.59479 1.75354 3.75128 1.427C 2.30231 2.00903 1.4353 3.03357 1.09778 3.50208Z"/>
</defs>
</svg>
